X:1
T:Hymn for James
T:Hymn for James
T:Dr. Tim Smith (Cardiacs)
C:Tim Smith
%%score { ( 1 3 ) | 2 }
L:1/8
Q:1/4=100
M:4/4
K:C
V:1 treble nm="Piano" snm="Pno."
V:3 treble 
V:2 bass 
V:1
!mf! [^GBe]4 [GBe]2 [Ad^f]2 | [GBg]4 [_eg]4 |[M:3/4] (e2 ^f2) g2 | ([_B_eg]2 [ce_a]2 [_A_df]2) | %4
 [_d_g_b] z!p! [e^g=b]4 |!mf! [ea^c']4 [dg_b]2 | [dg_b]4 [dgb]2- | [dgb]2!ppp! !fermata![dg_b]4 | %8
 !>![cgc'] z z2 z2 |] %9
V:2
!mf! E,4 E,,2 D,,2 | G,,4 _E,4 |[M:3/4] C,2 D,2 E,2 | (_E,2 _A,,2 _D,2) | _G,, z!p! E,4 | %5
!mf! A,4 _B,,2 | G,,4 G,,2- | G,,2!ppp! !fermata!G,,4 | !>![C,,G,,C,] z z2 z2 |] %9
V:3
 x8 | x4 (_B2 A2) |[M:3/4] [Gc]4 [Gc]2 | x6 | x6 | x6 | x6 | x6 | x6 |] %9

